Sources/FrostedUI/Resources/Icons.xcassets/parachute16.imageset/parachute-16.svg

<svg width="16" height="16" viewBox="0 0 16 16" fill="none" xmlns="http://www.w3.org/2000/svg" data-fui-icon="true">
  <path
    d="M8 0C9.89202 0 11.3721 0.509822 12.5144 1.30658C13.6495 2.0985 14.4111 3.14603 14.9206 4.16485C15.4291 5.18193 15.6972 6.19007 15.8385 6.93816C15.9095 7.31398 15.949 7.62961 15.9713 7.85316C15.9825 7.96465 15.9897 8.05376 15.9938 8.11682C15.9958 8.14839 15.9968 8.17395 15.9977 8.19201C15.9981 8.20087 15.9984 8.20806 15.9987 8.21349C15.9988 8.21612 15.9986 8.21853 15.9987 8.22033L15.9996 8.22326V8.22423L15.9899 8.37266C15.9657 8.51773 15.8986 8.65342 15.7965 8.76229L12.4998 12.2787V14.5394C12.4998 15.3456 11.8462 15.9992 11.0399 15.9993H4.9601C4.15402 15.999 3.50023 15.3455 3.50021 14.5394V12.2787L0.203482 8.76229C0.0673796 8.61701 -0.00626255 8.42321 0.000366194 8.22423V8.22326L0.00134271 8.22033C0.00140927 8.21853 0.00123663 8.21612 0.00134271 8.21349C0.00156428 8.20806 0.00189075 8.20087 0.00231923 8.19201C0.00319281 8.17395 0.00419105 8.14839 0.0062253 8.11682C0.0102921 8.05377 0.0175413 7.96465 0.0286852 7.85316C0.0510382 7.62963 0.0905076 7.31397 0.161492 6.93816C0.302817 6.1901 0.570973 5.18191 1.07942 4.16485C1.58881 3.14606 2.35057 2.09852 3.48556 1.30658C4.62781 0.509769 6.10802 7.42032e-05 8 0ZM5.00014 14.4993H10.9999V12.9994H5.00014V14.4993ZM4.37517 6.99968C3.2722 6.99978 2.53413 7.41443 2.06863 7.81702C1.92471 7.94155 1.80628 8.06649 1.71123 8.17834L4.82436 11.4995H7.25003V8.46055C7.23335 8.43533 7.21549 8.40536 7.1934 8.37462C7.08608 8.22538 6.91787 8.02132 6.6817 7.81702C6.21613 7.41444 5.47817 6.99968 4.37517 6.99968ZM11.6248 6.99968C10.5219 6.99978 9.7838 7.41443 9.3183 7.81702C9.08215 8.02135 8.91388 8.22541 8.8066 8.37462C8.78452 8.40537 8.76666 8.43534 8.74997 8.46055V11.4995H11.1756L14.2878 8.17834C14.1928 8.0666 14.0751 7.94136 13.9314 7.81702C13.4658 7.41444 12.7278 6.99968 11.6248 6.99968ZM8 1.49993C6.39274 1.5 5.21602 1.92787 4.34294 2.53699C3.46302 3.15108 2.84907 3.97904 2.42115 4.83474C2.20537 5.26634 2.03895 5.70072 1.91141 6.1091C2.54684 5.7594 3.3622 5.49982 4.37517 5.49975C5.89648 5.49975 6.97147 6.08515 7.66212 6.68231C7.78776 6.79097 7.89972 6.90122 8 7.00652C8.10027 6.90122 8.21226 6.79097 8.33788 6.68231C9.02846 6.08514 10.1036 5.49985 11.6248 5.49975C12.6374 5.49975 13.4522 5.75965 14.0876 6.1091C13.9601 5.70078 13.7946 5.26625 13.5788 4.83474C13.1509 3.97901 12.5371 3.15106 11.6571 2.53699C10.7839 1.92792 9.6073 1.49993 8 1.49993Z"
    fill="currentColor"
  />
</svg>

<svg xmlns="http://www.w3.org/2000/svg" width="16" height="16" fill="none" data-fui-icon="true" viewBox="0 0 16 16"><path fill="currentColor" d="M8 0c1.892 0 3.372.51 4.514 1.307 1.136.792 1.897 1.839 2.407 2.858.508 1.017.776 2.025.918 2.773a11 11 0 0 1 .155 1.179l.004.075v.028l.002.003v.001l-.01.149a.75.75 0 0 1-.194.39L12.5 12.278v2.26A1.46 1.46 0 0 1 11.04 16H4.96a1.46 1.46 0 0 1-1.46-1.46v-2.26L.203 8.762A.75.75 0 0 1 0 8.224l.001-.004v-.007l.001-.021.004-.075q.006-.095.023-.264C.05 7.63.09 7.314.16 6.938c.142-.748.41-1.756.918-2.773.51-1.019 1.272-2.066 2.407-2.858C4.628.51 6.108 0 8 0M5 14.5h6V13H5zM4.375 7c-1.103 0-1.84.414-2.306.817-.144.125-.263.25-.358.361L4.824 11.5H7.25V8.462q-.025-.04-.057-.086a3.3 3.3 0 0 0-.511-.558C6.216 7.414 5.478 7 4.375 7m7.25 0c-1.103 0-1.841.414-2.307.817a3.3 3.3 0 0 0-.511.558q-.032.046-.057.086v3.038h2.426l3.112-3.32a3.3 3.3 0 0 0-.357-.362C13.466 7.414 12.728 7 11.625 7M8 1.5c-1.607 0-2.784.428-3.657 1.037-.88.614-1.494 1.442-1.922 2.298a8.6 8.6 0 0 0-.51 1.274c.636-.35 1.451-.61 2.464-.61 1.521 0 2.596.586 3.287 1.183q.188.165.338.325.15-.16.338-.325c.69-.597 1.766-1.182 3.287-1.182 1.012 0 1.827.26 2.463.61a8.6 8.6 0 0 0-.51-1.275c-.427-.856-1.04-1.684-1.92-2.298C10.783 1.927 9.607 1.5 8 1.5"/></svg>
